!!!SOCIAL_FUNCTION:	songs of personal narratives concerning war
!!!PDT:	1918

Specific Region: Dakotas, Minnesota, Montana, Nebraska
!!!REG: Dakotas and Montana
!!!LING_GROUP: Siouan
!!!LANG: Tone
!!!OTL@ENG: A Night Is Different
!!!ONM: No. 162
**kern
*Imale
*clefF4
*k[b-e-a-d-g-c-]
*M3/4
*MM88
8e-
8B-
8B-
8e-
8e-
8B-
=1||
*M2/4
8.B-
16A-
8.A-
16G-
=2
8G-
8B-
8B-
8A-
=3||
*M3/4
16B-
8.G-
8G-
8E-
4E-
=4||
*M2/4
8G-
8G-
16G-
8.E-
=5
8G-
8G-
8A-
8G-
=6
8.E-
16E-
[4E-
=7
2E-]
=8
2E-
=9||
*M3/4
8e-
8B-
8B-
8e-
8e-
8B-
=10||
*M2/4
8.B-
16A-
8.A-
16G-
=11
8G-
8B-
8.B-
16A-
=12||
*M3/4
16B-
8.G-
8G-
8E-
4E-
=13||
*M2/4
8G-
8G-
8.G-
16E-
=14
8G-
8G-
8A-
8G-
=15
8.E-
16E-
[4E-
=16
4E-]
4E-
==
*-
!!!CNT: Native American -- Sioux
!!!MRD: 1911/07//-1914///
!!!OCL: Frances Densmore
!!!YOR1: Teton Sioux Music, Bulletin 61,
!!!YOR2: Bureau of American Ethnology, Smithsonian Institution
!!!PPR: Government Printing Office
!!!PPP: Washington, D.C.
!!!PDT: 1918///
!!!ENC: Craig Stuart Sapp
!!!END: 2002/03/25/
!!!EEV: 2002/03/31/
!!!AGN: War Song/Song of Personal Narrative Concerning War
!!!MPN@@SIO: Chehu'pa
!!!MPN@ENG: Jaw
!!!TXO: Teton Sioux
!!!MLC: Standing Rock Reservation, South Dakota, United States of America
!!!ARL: 45.9/-100.7#
!!!catalog: Catalogue No. 652
!!!PPG: 391
!!!EFL: 167/245
!!!VTS: 1282750056
